icons/svgs/money-bills-outline.svg

<svg width="25" height="24" viewBox="0 0 25 24" fill="none" xmlns="http://www.w3.org/2000/svg">
<path d="M20.625 5.125H8.125C8.125 6.53125 6.99219 7.625 5.625 7.625V12.625C6.99219 12.625 8.125 13.7578 8.125 15.125H20.625C20.625 13.7578 21.7188 12.625 23.125 12.625V7.625C21.7188 7.625 20.625 6.53125 20.625 5.125ZM6.25 3.25H22.5C23.8672 3.25 25 4.38281 25 5.75V14.5C25 15.9062 23.8672 17 22.5 17H6.25C4.84375 17 3.75 15.9062 3.75 14.5V5.75C3.75 4.38281 4.84375 3.25 6.25 3.25ZM17.5 10.125C17.5 11.2578 16.875 12.2734 15.9375 12.8594C14.9609 13.4062 13.75 13.4062 12.8125 12.8594C11.8359 12.2734 11.25 11.2578 11.25 10.125C11.25 9.03125 11.8359 8.01562 12.8125 7.42969C13.75 6.88281 14.9609 6.88281 15.9375 7.42969C16.875 8.01562 17.5 9.03125 17.5 10.125ZM1.875 6.6875V16.0625C1.875 17.625 3.125 18.875 4.6875 18.875H20.3125C20.8203 18.875 21.25 19.3047 21.25 19.8125C21.25 20.3594 20.8203 20.75 20.3125 20.75H4.6875C2.07031 20.75 0 18.6797 0 16.0625V6.6875C0 6.17969 0.390625 5.75 0.9375 5.75C1.44531 5.75 1.875 6.17969 1.875 6.6875Z" fill="black"/>
</svg>

<svg xmlns="http://www.w3.org/2000/svg" width="24" height="24" fill="currentColor" class="icon-money-bills-outline" viewBox="0 0 24 24">
  <mask id="a" width="25" height="18" x="0" y="3" maskUnits="userSpaceOnUse" style="mask-type:alpha">
    <path d="M20.625 5.125h-12.5c0 1.406-1.133 2.5-2.5 2.5v5c1.367 0 2.5 1.133 2.5 2.5h12.5c0-1.367 1.094-2.5 2.5-2.5v-5a2.47 2.47 0 0 1-2.5-2.5M6.25 3.25H22.5c1.367 0 2.5 1.133 2.5 2.5v8.75c0 1.406-1.133 2.5-2.5 2.5H6.25a2.47 2.47 0 0 1-2.5-2.5V5.75c0-1.367 1.094-2.5 2.5-2.5m11.25 6.875c0 1.133-.625 2.148-1.562 2.734-.977.547-2.188.547-3.126 0a3.16 3.16 0 0 1-1.562-2.734c0-1.094.586-2.11 1.563-2.695.937-.547 2.148-.547 3.124 0 .938.586 1.563 1.601 1.563 2.695M1.875 6.688v9.375a2.8 2.8 0 0 0 2.813 2.812h15.625a.95.95 0 0 1 .937.938c0 .546-.43.937-.937.937H4.688A4.65 4.65 0 0 1 0 16.063V6.688c0-.508.39-.938.938-.938a.95.95 0 0 1 .937.938"/>
  </mask>
  <g mask="url(#a)">
    <path d="M0 0h24v24H0z"/>
  </g>
</svg>
